packages/tokens/icons/sun/size24Px.svg

<svg viewBox="0 0 24 24" fill="none" xmlns="http://www.w3.org/2000/svg" width="1em" height="1em"><circle cx="5" cy="5" r="4.5" transform="matrix(-1 0 0 1 17 7)" stroke="currentColor"/><path d="M6.69684 6.69671L5.28262 5.2825M18.7177 18.7175L17.3034 17.3033M12.0001 4.5V2.5M12.0001 21.5V19.5M4.5 12H2.5M21.5 12H19.5M17.3034 6.69671L18.7176 5.2825M5.28259 18.7175L6.69681 17.3033" stroke="currentColor" stroke-linecap="round"/></svg>

<svg xmlns="http://www.w3.org/2000/svg" fill="none" viewBox="0 0 24 24" width="1em" height="1em"><circle cx="5" cy="5" r="4.5" stroke="currentColor" transform="matrix(-1 0 0 1 17 7)"/><path stroke="currentColor" stroke-linecap="round" d="M6.697 6.697 5.283 5.282m13.435 13.436-1.415-1.415M12 4.5v-2m0 19v-2M4.5 12h-2m19 0h-2m-2.197-5.303 1.415-1.415M5.283 18.718l1.414-1.415"/></svg>
